templates/main/source/images/GROHE AquaDimmer.svg

<?xml version="1.0" encoding="utf-8"?>
<svg width="48px" height="48px" viewBox="0 0 48 48" version="1.1" xmlns:xlink="http://www.w3.org/1999/xlink" xmlns="http://www.w3.org/2000/svg">
  <desc>Created with Lunacy</desc>
  <defs>
    <linearGradient x1="-0.21279062" y1="0.4996875" x2="0.78793436" y2="0.4996875" id="gradient_1">
      <stop offset="0" stop-color="#FFFFFF" />
      <stop offset="0.4" stop-color="#FFFFFF" />
      <stop offset="0.53" stop-color="#E2F2FA" />
      <stop offset="0.82" stop-color="#98D0ED" />
      <stop offset="1" stop-color="#65B8E4" />
    </linearGradient>
    <linearGradient x1="-0.0338696" y1="0.6226708" x2="1.0211685" y2="0.29503107" id="gradient_2">
      <stop offset="0" stop-color="#FFFFFF" />
      <stop offset="0.09" stop-color="#F2F9FC" />
      <stop offset="0.25" stop-color="#D1E9F5" />
      <stop offset="0.47" stop-color="#9BD0EA" />
      <stop offset="0.73" stop-color="#51ADDB" />
      <stop offset="1" stop-color="#0086CA" />
    </linearGradient>
    <linearGradient x1="0.633934" y1="1.0289474" x2="0.25269428" y2="-0.009649123" id="gradient_3">
      <stop offset="0" stop-color="#FFFFFF" />
      <stop offset="0.36" stop-color="#D8EAF7" />
      <stop offset="1" stop-color="#8AC1E8" />
    </linearGradient>
    <linearGradient x1="1.0283333" y1="-66.873146" x2="-0.0125" y2="-67.22076" id="gradient_4">
      <stop offset="0" stop-color="#FFFFFF" />
      <stop offset="0.36" stop-color="#D8EAF7" />
      <stop offset="1" stop-color="#8AC1E8" />
    </linearGradient>
    <linearGradient x1="0.37541437" y1="-30.066135" x2="0.72559077" y2="-31.11235" id="gradient_5">
      <stop offset="0" stop-color="#FFFFFF" />
      <stop offset="0.36" stop-color="#D8EAF7" />
      <stop offset="1" stop-color="#8AC1E8" />
    </linearGradient>
  </defs>
  <g id="icons/example1">
    <g id="Быстрая-программа-QuickPowerWash+">
      <path d="M37.2 0L10.8 0C4.83532 0 0 4.83532 0 10.8L0 37.2C0 43.1647 4.83532 48 10.8 48L37.2 48C40.0643 48 42.8114 46.8621 44.8368 44.8368C46.8621 42.8114 48 40.0643 48 37.2L48 10.8C48 7.93566 46.8621 5.18864 44.8368 3.16325C42.8114 1.13785 40.0643 0 37.2 0ZM37.2 1.8C42.1706 1.8 46.2 5.82944 46.2 10.8L46.2 37.2C46.2 42.1706 42.1706 46.2 37.2 46.2L10.8 46.2C5.82944 46.2 1.8 42.1706 1.8 37.2L1.8 10.8C1.8 5.82944 5.82944 1.8 10.8 1.8L37.2 1.8ZM8.19 31.8C8.19 30.414 8.016 29.4 6.636 29.4C5.256 29.4 5.082 30.384 5.082 31.8C5.082 33.216 5.256 34.2 6.636 34.2L6.96 34.2L7.242 34.128L7.788 34.692L8.334 34.2L7.842 33.702C8.13505 33.1306 8.25791 32.4871 8.196 31.848L8.19 31.8ZM26.796 31.8C26.796 30.384 26.97 29.4 28.35 29.4C29.73 29.4 29.904 30.384 29.904 31.8C29.904 33.216 29.73 34.2 28.35 34.2C26.97 34.2 26.796 33.216 26.796 31.8ZM18.174 32.364C18.174 33.348 17.922 34.2 16.722 34.2L16.71 34.254C15.33 34.254 15.156 33.27 15.156 31.854C15.156 30.438 15.39 29.454 16.71 29.454C18.03 29.454 18.126 30.42 18.126 31.086L17.202 31.086C17.202 30.42 17.142 30.132 16.65 30.132C16.158 30.132 16.05 30.51 16.05 31.89C16.05 33.27 16.29 33.522 16.65 33.522C17.01 33.522 17.25 33.348 17.25 32.364L18.174 32.364ZM41.982 31.836C42.612 31.914 42.72 32.262 42.72 33.228L42.708 33.222C42.714 33.708 42.738 33.954 42.912 34.044L42.912 34.08L41.916 34.08C41.834 33.9337 41.7945 33.7675 41.802 33.6L41.802 32.754C41.79 32.37 41.628 32.154 41.256 32.154L40.764 32.154L40.764 34.08L39.84 34.08L39.84 29.508L41.544 29.508C41.8721 29.4713 42.1992 29.5859 42.4327 29.8193C42.6661 30.0528 42.7807 30.3799 42.744 30.708C42.744 31.32 42.498 31.728 41.982 31.836ZM24 32.262L24.492 32.262C24.8773 32.3164 25.2664 32.1923 25.549 31.9248C25.8317 31.6574 25.977 31.2757 25.944 30.888C25.9949 30.5322 25.8835 30.1723 25.6407 29.9073C25.3978 29.6423 25.0489 29.5002 24.69 29.52L23.088 29.52L23.088 34.086L24 34.086L24 32.262ZM10.608 33.498C11.04 33.498 11.148 33.162 11.148 32.706L11.136 29.52L12.06 29.52L12.06 32.73C12.1133 33.1317 11.9774 33.5354 11.692 33.8231C11.4067 34.1108 11.0041 34.25 10.602 34.2C10.1933 34.2597 9.78076 34.1201 9.4923 33.8245C9.20384 33.5289 9.07435 33.1131 9.144 32.706L9.144 29.52L10.068 29.52L10.068 32.706C10.068 33.162 10.176 33.498 10.608 33.498ZM13.176 29.52L14.1 29.52L14.1 34.092L13.176 34.092L13.176 29.52ZM20.1 32.73L20.436 32.214L21.378 34.086L22.416 34.086L21.036 31.476L22.272 29.52L21.276 29.52L20.112 31.35L20.1 31.35L20.1 29.52L19.176 29.52L19.176 34.086L20.1 34.086L20.1 32.73ZM34.02 32.898L34.032 32.898L34.536 29.52L35.418 29.52L34.59 34.086L33.558 34.086L33.048 30.774L33.03 30.774L32.52 34.086L31.494 34.086L30.66 29.52L31.542 29.52L32.046 32.898L32.058 32.898L32.598 29.52L33.48 29.52L34.02 32.898ZM37.188 32.106L38.724 32.106L38.724 31.35L37.188 31.35L37.188 30.276L38.82 30.276L38.82 29.52L36.27 29.52L36.27 34.086L38.886 34.086L38.886 33.33L37.188 33.33L37.188 32.106ZM27.714 31.77C27.714 33 27.804 33.468 28.35 33.468C28.896 33.468 28.986 32.988 28.986 31.77C28.986 30.552 28.896 30.078 28.35 30.078C27.804 30.078 27.714 30.54 27.714 31.77ZM6.018 31.8C6.018 33.0161 6.10598 33.4874 6.63573 33.4978C7.16595 33.487 7.254 32.9869 7.254 31.8C7.254 30.6 7.2 30.108 6.654 30.108C6.108 30.108 6.018 30.57 6.018 31.8ZM40.734 31.506L41.124 31.506C41.3138 31.5371 41.5069 31.4754 41.6435 31.34C41.78 31.2046 41.8435 31.012 41.814 30.822C41.8157 30.796 41.8157 30.77 41.814 30.744C41.8032 30.5847 41.7295 30.4363 41.609 30.3316C41.4885 30.2269 41.3312 30.1745 41.172 30.186L40.734 30.186L40.734 31.506ZM24 30.192L24.384 30.192C24.846 30.192 25.026 30.45 25.026 30.894C25.0505 31.0671 24.9983 31.2423 24.883 31.3737C24.7677 31.5051 24.6008 31.5797 24.426 31.578L24 31.578L24 30.192ZM28.308 39.258L27.36 38.85C26.838 38.628 26.76 38.4 26.76 38.022C26.721 37.827 26.7811 37.6254 26.9205 37.4836C27.0598 37.3419 27.2604 37.2783 27.456 37.314C27.924 37.314 28.122 37.644 28.122 38.22L29.322 38.22L29.322 38.052C29.322 36.852 28.53 36.414 27.438 36.414C26.9381 36.3578 26.439 36.5261 26.0753 36.8736C25.7115 37.2211 25.5206 37.7121 25.554 38.214C25.554 39.228 26.058 39.684 27.15 40.056C27.96 40.338 28.242 40.542 28.242 41.094C28.2552 41.2803 28.1936 41.4641 28.0708 41.6049C27.9481 41.7456 27.7743 41.8317 27.588 41.844L27.48 41.844C26.832 41.844 26.67 41.478 26.67 40.908L26.67 40.728L25.47 40.728L25.47 40.974C25.47 42.102 26.016 42.774 27.408 42.774C28.8 42.774 29.52 42.174 29.52 40.908C29.52 40.164 29.28 39.708 28.362 39.294L28.308 39.258ZM21.462 36.528L19.854 42.6L21.132 42.6L21.414 41.31L23.034 41.31L23.316 42.6L24.6 42.6L22.98 36.51L21.462 36.528ZM17.442 41.028L17.424 41.028L16.71 36.528L15.528 36.528L14.814 41.028L14.796 41.028L14.124 36.528L12.948 36.528L14.058 42.618L15.426 42.618L16.11 38.196L16.128 38.196L16.812 42.618L18.186 42.618L19.29 36.528L18.114 36.528L17.442 41.028ZM31.95 38.856L33.384 38.856L33.384 36.528L34.614 36.528L34.614 42.618L33.384 42.618L33.384 39.912L31.95 39.912L31.95 42.618L30.72 42.618L30.72 36.528L31.95 36.528L31.95 38.856ZM21.6 40.326L22.2 37.59L22.8 40.326L21.6 40.326Z" id="Combined-Shape" fill="#8C0014" fill-rule="evenodd" stroke="none" />
      <path d="M0 0L19.2 0L19.2 19.2L0 19.2L0 0Z" transform="translate(14.4 7.038)" id="Rectangle" fill="url(#gradient_1)" stroke="none" />
      <path d="M19.2 9.6C19.2 14.9019 14.9019 19.2 9.6 19.2C4.29807 19.2 0 14.9019 0 9.6C0 4.29807 4.29807 1.06581e-15 9.6 0C14.9019 0 19.2 4.29807 19.2 9.6" transform="translate(14.4 7.038)" id="Path" fill="#FFFFFF" stroke="none" />
      <path d="M0 10.2C0 4.5667 4.5667 0 10.2 0C15.8333 0 20.4 4.5667 20.4 10.2C20.4 15.8333 15.8333 20.4 10.2 20.4C4.5667 20.4 0 15.8333 0 10.2M1.2 10.2C1.2 15.1706 5.22944 19.2 10.2 19.2C15.1706 19.2 19.2 15.1706 19.2 10.2C19.2 5.22944 15.1706 1.2 10.2 1.2C5.22944 1.2 1.2 5.22944 1.2 10.2" transform="translate(13.8 6.438)" id="Shape" fill="#475155" stroke="none" />
      <path d="M0.006 3.858C1.44678 2.17144 3.80178 1.58993 5.862 2.412L6.162 2.52C6.162 2.52 6.582 1.488 7.086 0.234C6.58646 0.0799227 6.06676 0.00105859 5.544 0C3.624 0 1.542 1.08 0 3.864" transform="translate(19.998 9.342)" id="Path" fill="url(#gradient_2)" stroke="none" />
      <path d="M3.16336 6.84C1.91719 5.37727 1.58236 3.34522 2.29336 1.56L2.29336 1.512L0.421364 0C-0.868636 3.24 1.02136 5.484 3.14536 6.84" transform="translate(16.828636 13.08)" id="Path" fill="url(#gradient_3)" stroke="none" />
      <path d="M3.534 1.488C2.87854 1.48867 2.22896 1.36446 1.62 1.122L1.53 1.08L0 3.144C0.760946 3.46145 1.57557 3.63049 2.4 3.642C4.848 3.642 6.282 1.794 7.2 0C6.23705 0.941338 4.94659 1.47258 3.6 1.482" transform="translate(20.4 20.256)" id="Path" fill="url(#gradient_4)" stroke="none" />
      <path d="M0 0C1.67375 1.45804 2.23346 3.81991 1.392 5.874L1.35 5.958L3.408 7.53C4.356 5.208 3.744 2.13 0 0Z" transform="translate(27.318 12.504)" id="Path" fill="url(#gradient_5)" stroke="none" />
      <path d="M1.37006 6.08739C1.27582 6.33605 1.05019 6.51094 0.785884 6.54019C0.521575 6.56945 0.263163 6.44813 0.116832 6.22609C-0.0294984 6.00405 -0.0390681 5.71873 0.0920554 5.48739C0.254055 5.13338 2.99006 -0.152615 3.34406 0.0033851C3.69806 0.159385 1.54406 5.71538 1.37006 6.06339" transform="translate(23.229944 10.790615)" id="Path" fill="#E1000F" stroke="none" />
    </g>
  </g>
</svg>

<svg width="48" height="48" viewBox="0 0 48 48" xmlns:xlink="http://www.w3.org/1999/xlink" xmlns="http://www.w3.org/2000/svg"><defs><linearGradient x1="-.213" y1=".5" x2=".788" y2=".5" id="gradient_1"><stop offset="0" stop-color="#FFF"/><stop offset=".4" stop-color="#FFF"/><stop offset=".53" stop-color="#E2F2FA"/><stop offset=".82" stop-color="#98D0ED"/><stop offset="1" stop-color="#65B8E4"/></linearGradient><linearGradient x1="-.034" y1=".623" x2="1.021" y2=".295" id="gradient_2"><stop offset="0" stop-color="#FFF"/><stop offset=".09" stop-color="#F2F9FC"/><stop offset=".25" stop-color="#D1E9F5"/><stop offset=".47" stop-color="#9BD0EA"/><stop offset=".73" stop-color="#51ADDB"/><stop offset="1" stop-color="#0086CA"/></linearGradient><linearGradient x1=".634" y1="1.029" x2=".253" y2="-.01" id="gradient_3"><stop offset="0" stop-color="#FFF"/><stop offset=".36" stop-color="#D8EAF7"/><stop offset="1" stop-color="#8AC1E8"/></linearGradient><linearGradient x1="1.028" y1="-66.873" x2="-.013" y2="-67.221" id="gradient_4"><stop offset="0" stop-color="#FFF"/><stop offset=".36" stop-color="#D8EAF7"/><stop offset="1" stop-color="#8AC1E8"/></linearGradient><linearGradient x1=".375" y1="-30.066" x2=".726" y2="-31.112" id="gradient_5"><stop offset="0" stop-color="#FFF"/><stop offset=".36" stop-color="#D8EAF7"/><stop offset="1" stop-color="#8AC1E8"/></linearGradient></defs><g id="icons/example1"><g id="Быстрая-программа-QuickPowerWash+" stroke="none"><path d="M37.2 0H10.8C4.835 0 0 4.835 0 10.8v26.4C0 43.165 4.835 48 10.8 48h26.4A10.8 10.8 0 0048 37.2V10.8A10.8 10.8 0 0037.2 0zm0 1.8a9 9 0 019 9v26.4a9 9 0 01-9 9H10.8a9 9 0 01-9-9V10.8a9 9 0 019-9h26.4zm-29.01 30c0-1.386-.174-2.4-1.554-2.4-1.38 0-1.554.984-1.554 2.4s.174 2.4 1.554 2.4h.324l.282-.072.546.564.546-.492-.492-.498a3.354 3.354 0 00.354-1.854L8.19 31.8zm18.606 0c0-1.416.174-2.4 1.554-2.4 1.38 0 1.554.984 1.554 2.4s-.174 2.4-1.554 2.4c-1.38 0-1.554-.984-1.554-2.4zm-8.622.564c0 .984-.252 1.836-1.452 1.836l-.012.054c-1.38 0-1.554-.984-1.554-2.4s.234-2.4 1.554-2.4 1.416.966 1.416 1.632h-.924c0-.666-.06-.954-.552-.954-.492 0-.6.378-.6 1.758s.24 1.632.6 1.632.6-.174.6-1.158h.924zm23.808-.528c.63.078.738.426.738 1.392l-.012-.006c.006.486.03.732.204.822v.036h-.996a.9.9 0 01-.114-.48v-.846c-.012-.384-.174-.6-.546-.6h-.492v1.926h-.924v-4.572h1.704a1.086 1.086 0 011.2 1.2c0 .612-.246 1.02-.762 1.128zM24 32.262h.492a1.278 1.278 0 001.452-1.374 1.2 1.2 0 00-1.254-1.368h-1.602v4.566H24v-1.824zm-13.392 1.236c.432 0 .54-.336.54-.792l-.012-3.186h.924v3.21a1.308 1.308 0 01-1.458 1.47 1.29 1.29 0 01-1.458-1.494V29.52h.924v3.186c0 .456.108.792.54.792zm2.568-3.978h.924v4.572h-.924V29.52zm6.924 3.21l.336-.516.942 1.872h1.038l-1.38-2.61 1.236-1.956h-.996l-1.164 1.83H20.1v-1.83h-.924v4.566h.924V32.73zm13.92.168h.012l.504-3.378h.882l-.828 4.566h-1.032l-.51-3.312h-.018l-.51 3.312h-1.026l-.834-4.566h.882l.504 3.378h.012l.54-3.378h.882l.54 3.378zm3.168-.792h1.536v-.756h-1.536v-1.074h1.632v-.756h-2.55v4.566h2.616v-.756h-1.698v-1.224zm-9.474-.336c0 1.23.09 1.698.636 1.698s.636-.48.636-1.698-.09-1.692-.636-1.692-.636.462-.636 1.692zm-21.696.03c0 1.216.088 1.687.618 1.698.53-.011.618-.511.618-1.698 0-1.2-.054-1.692-.6-1.692-.546 0-.636.462-.636 1.692zm34.716-.294h.39a.6.6 0 00.69-.684.597.597 0 00-.642-.636h-.438v1.32zM24 30.192h.384c.462 0 .642.258.642.702a.6.6 0 01-.6.684H24v-1.386zm4.308 9.066l-.948-.408c-.522-.222-.6-.45-.6-.828a.6.6 0 01.696-.708c.468 0 .666.33.666.906h1.2v-.168c0-1.2-.792-1.638-1.884-1.638a1.698 1.698 0 00-1.884 1.8c0 1.014.504 1.47 1.596 1.842.81.282 1.092.486 1.092 1.038a.702.702 0 01-.654.75h-.108c-.648 0-.81-.366-.81-.936v-.18h-1.2v.246c0 1.128.546 1.8 1.938 1.8s2.112-.6 2.112-1.866c0-.744-.24-1.2-1.158-1.614l-.054-.036zm-6.846-2.73L19.854 42.6h1.278l.282-1.29h1.62l.282 1.29H24.6l-1.62-6.09-1.518.018zm-4.02 4.5h-.018l-.714-4.5h-1.182l-.714 4.5h-.018l-.672-4.5h-1.176l1.11 6.09h1.368l.684-4.422h.018l.684 4.422h1.374l1.104-6.09h-1.176l-.672 4.5zm14.508-2.172h1.434v-2.328h1.23v6.09h-1.23v-2.706H31.95v2.706h-1.23v-6.09h1.23v2.328zm-10.35 1.47l.6-2.736.6 2.736h-1.2z" id="Combined-Shape" fill="#8C0014" fill-rule="evenodd"/><path d="M0 0h19.2v19.2H0V0z" transform="translate(14.4 7.038)" id="Rectangle" fill="url(#gradient_1)"/><path d="M19.2 9.6A9.6 9.6 0 110 9.6a9.6 9.6 0 0119.2 0" transform="translate(14.4 7.038)" id="Path" fill="#FFF"/><path d="M0 10.2C0 4.567 4.567 0 10.2 0c5.633 0 10.2 4.567 10.2 10.2 0 5.633-4.567 10.2-10.2 10.2C4.567 20.4 0 15.833 0 10.2m1.2 0a9 9 0 1018 0 9 9 0 00-18 0" transform="translate(13.8 6.438)" id="Shape" fill="#475155"/><path d="M.006 3.858a5.178 5.178 0 015.856-1.446l.3.108s.42-1.032.924-2.286A5.268 5.268 0 005.544 0C3.624 0 1.542 1.08 0 3.864" transform="translate(19.998 9.342)" id="Path" fill="url(#gradient_2)"/><path d="M3.163 6.84a5.184 5.184 0 01-.87-5.28v-.048L.421 0c-1.29 3.24.6 5.484 2.724 6.84" transform="translate(16.829 13.08)" id="Path" fill="url(#gradient_3)"/><path d="M3.534 1.488a5.16 5.16 0 01-1.914-.366l-.09-.042L0 3.144c.76.317 1.576.486 2.4.498 2.448 0 3.882-1.848 4.8-3.642a5.202 5.202 0 01-3.6 1.482" transform="translate(20.4 20.256)" id="Path" fill="url(#gradient_4)"/><path d="M0 0a5.184 5.184 0 011.392 5.874l-.042.084L3.408 7.53C4.356 5.208 3.744 2.13 0 0z" transform="translate(27.318 12.504)" id="Path" fill="url(#gradient_5)"/><path d="M1.37 6.087a.708.708 0 11-1.278-.6C.254 5.133 2.99-.153 3.344.003c.354.156-1.8 5.712-1.974 6.06" transform="translate(23.23 10.79)" id="Path" fill="#E1000F"/></g></g></svg>
